src/assets/images/tabbar/cart_active.svg

<?xml version="1.0" standalone="no"?><!DOCTYPE svg PUBLIC "-//W3C//DTD SVG 1.1//EN" "http://www.w3.org/Graphics/SVG/1.1/DTD/svg11.dtd"><svg t="1585791436921" class="icon" viewBox="0 0 1024 1024" version="1.1" xmlns="http://www.w3.org/2000/svg" p-id="18708" xmlns:xlink="http://www.w3.org/1999/xlink" width="48" height="48"><defs><style type="text/css"></style></defs><path d="M725.333333 768c-47.36 0-85.333333 37.973333-85.333333 85.333333a85.333333 85.333333 0 0 0 85.333333 85.333334 85.333333 85.333333 0 0 0 85.333334-85.333334 85.333333 85.333333 0 0 0-85.333334-85.333333M42.666667 85.333333v85.333334h85.333333l153.6 323.84-58.026667 104.533333c-6.4 11.946667-10.24 26.026667-10.24 40.96a85.333333 85.333333 0 0 0 85.333334 85.333333h512v-85.333333H316.586667a10.666667 10.666667 0 0 1-10.666667-10.666667c0-2.133333 0.426667-3.84 1.28-5.12L345.6 554.666667h317.866667c32 0 60.16-17.92 74.666666-43.946667l152.746667-276.053333c2.986667-6.826667 5.12-14.08 5.12-21.333334a42.666667 42.666667 0 0 0-42.666667-42.666666H222.293333l-40.106666-85.333334M298.666667 768c-47.36 0-85.333333 37.973333-85.333334 85.333333a85.333333 85.333333 0 0 0 85.333334 85.333334 85.333333 85.333333 0 0 0 85.333333-85.333334 85.333333 85.333333 0 0 0-85.333333-85.333333z" fill="#ff699c" p-id="18709"></path></svg>

<?xml version="1.0" standalone="no"?><!DOCTYPE svg PUBLIC "-//W3C//DTD SVG 1.1//EN" "http://www.w3.org/Graphics/SVG/1.1/DTD/svg11.dtd"><svg t="1584585868041" class="icon" viewBox="0 0 1024 1024" version="1.1" xmlns="http://www.w3.org/2000/svg" p-id="7709" xmlns:xlink="http://www.w3.org/1999/xlink" width="48" height="48"><defs><style type="text/css"></style></defs><path d="M725.333333 768C677.973333 768 640 805.973333 640 853.333333 640 900.266667 678.4 938.666667 725.333333 938.666667 772.266667 938.666667 810.666667 900.266667 810.666667 853.333333 810.666667 805.973333 772.266667 768 725.333333 768M42.666667 85.333333 42.666667 170.666667 128 170.666667 281.6 494.506667 223.573333 599.04C217.173333 610.986667 213.333333 625.066667 213.333333 640 213.333333 686.933333 251.733333 725.333333 298.666667 725.333333L810.666667 725.333333 810.666667 640 316.586667 640C310.613333 640 305.92 635.306667 305.92 629.333333 305.92 627.2 306.346667 625.493333 307.2 624.213333L345.6 554.666667 663.466667 554.666667C695.466667 554.666667 723.626667 536.746667 738.133333 510.72L890.88 234.666667C893.866667 227.84 896 220.586667 896 213.333333 896 189.866667 876.8 170.666667 853.333333 170.666667L222.293333 170.666667 182.186667 85.333333M298.666667 768C251.306667 768 213.333333 805.973333 213.333333 853.333333 213.333333 900.266667 251.733333 938.666667 298.666667 938.666667 345.6 938.666667 384 900.266667 384 853.333333 384 805.973333 345.6 768 298.666667 768Z" p-id="7710" fill="#d81e06"></path></svg>
